images/farms/yfi-bnb.svg

<svg width="186" height="171" viewBox="0 0 186 171" fill="none" xmlns="http://www.w3.org/2000/svg">
<path d="M67.045 119.028C63.8667 131.172 82.0449 146.449 107.647 153.149C133.25 159.849 156.581 155.436 159.759 143.291C162.937 131.146 144.759 115.87 119.157 109.169C93.5546 102.469 70.2233 106.883 67.045 119.028Z" fill="#606063"/>
<path d="M155.924 149.273L171.346 132.988L61.9922 104.369L67.7128 126.187L155.924 149.273Z" fill="#606063"/>
<path d="M68.9337 108.293L27.0725 97.338C25.258 96.8632 23.4126 97.9924 23.0096 99.8242L22.5414 101.953C21.6084 106.194 24.1195 110.433 28.2875 111.653L70.0994 123.892L68.9337 108.293Z" fill="#606063"/>
<path d="M62.2026 98.7096C58.5089 112.824 80.5267 130.811 111.381 138.886C142.235 146.96 170.241 142.064 173.935 127.95C177.629 113.836 155.611 95.8488 124.757 87.7742C93.9028 79.6996 65.8963 84.5955 62.2026 98.7096Z" fill="url(#paint0_linear)"/>
<path fill-rule="evenodd" clip-rule="evenodd" d="M146.673 123.286C153.771 128.506 157.919 134.152 158.538 139.157L161.516 138.789C160.744 132.551 155.779 126.258 148.45 120.869C141.061 115.434 131.011 110.721 119.537 107.718C108.063 104.716 96.9927 103.901 87.888 105.019C78.8593 106.128 71.4479 109.182 67.7196 114.242L70.1348 116.021C73.1263 111.961 79.5082 109.071 88.2536 107.997C96.9231 106.933 107.608 107.698 118.777 110.621C129.946 113.544 139.636 118.111 146.673 123.286Z" fill="#606063"/>
<path fill-rule="evenodd" clip-rule="evenodd" d="M75.7343 118.739C67.0136 111.615 63.7365 104.698 65.1049 99.4692C66.4733 94.2403 72.7186 89.8155 83.8112 87.8763C94.6178 85.9872 108.889 86.7226 123.997 90.6764C139.105 94.6302 151.908 100.98 160.403 107.921C169.124 115.045 172.401 121.962 171.033 127.191C169.664 132.42 163.419 136.844 152.326 138.784C141.52 140.673 127.248 139.937 112.14 135.984C97.0323 132.03 84.2301 125.68 75.7343 118.739ZM111.381 138.886C80.5267 130.811 58.5089 112.824 62.2026 98.7096C65.8963 84.5955 93.9028 79.6996 124.757 87.7742C155.611 95.8488 177.629 113.836 173.935 127.95C170.241 142.064 142.235 146.96 111.381 138.886Z" fill="#979797"/>
<path fill-rule="evenodd" clip-rule="evenodd" d="M64.1673 124.049L59.2305 104.926L62.1352 104.176L67.0721 123.299L64.1673 124.049Z" fill="url(#paint1_linear)"/>
<path fill-rule="evenodd" clip-rule="evenodd" d="M62.4691 106.189C62.4241 106.041 62.3812 105.893 62.3406 105.746C62.2656 105.473 62.1983 105.2 62.1386 104.929L61.997 104.389C61.9948 104.38 62.0025 104.372 62.0109 104.375C62.019 104.377 62.0266 104.37 62.0251 104.362C62.0236 104.353 62.0222 104.345 62.0207 104.337C61.9732 104.072 61.9333 103.807 61.9009 103.543C61.8931 103.479 61.8857 103.416 61.8788 103.352C61.8065 102.689 61.7824 102.031 61.8078 101.378C61.8079 101.378 61.8079 101.378 61.8079 101.377C61.8432 100.475 61.9734 99.5849 62.2025 98.7095C65.8962 84.5954 93.9027 79.6994 124.757 87.774C155.611 95.8486 177.629 113.836 173.935 127.95C173.706 128.826 173.383 129.666 172.972 130.469C172.972 130.469 172.972 130.47 172.972 130.47C172.528 131.338 171.981 132.163 171.337 132.945C171.332 132.951 171.326 132.958 171.321 132.964C171.319 132.967 171.318 132.969 171.318 132.972C171.318 132.977 171.322 132.982 171.327 132.983C171.332 132.984 171.335 132.989 171.336 132.993C171.336 132.996 171.335 133 171.333 133.002L170.725 133.644C170.655 133.72 170.584 133.795 170.511 133.87L169.275 135.175L169.273 135.177L157.793 147.299C150.986 156.33 130.197 159.051 107.647 153.149C85.3446 147.312 68.6757 134.967 66.8505 123.854C66.7571 123.285 66.3667 122.8 65.8135 122.639L29.1271 111.91C24.9834 110.698 22.4722 106.499 23.3648 102.275L23.8239 100.103C24.2137 98.2581 26.0655 97.1133 27.8898 97.589L62.1386 106.52C62.3391 106.573 62.5217 106.39 62.4691 106.189ZM58.8119 102.553C58.7482 101.009 58.9029 99.4681 59.3002 97.9499C61.6255 89.0648 71.2303 83.9845 82.7779 81.9658C94.6114 79.8971 109.77 80.751 125.516 84.8718C141.262 88.9926 154.896 95.6738 164.199 103.274C173.277 110.691 179.162 119.825 176.837 128.71C176.28 130.839 175.285 132.774 173.936 134.499C173.821 134.697 173.679 134.887 173.511 135.065L172.923 135.686C172.92 135.689 172.916 135.693 172.913 135.697C172.836 135.779 172.759 135.861 172.68 135.943C172.677 135.946 172.673 135.95 172.67 135.953L160.082 149.246C155.911 154.652 148.056 157.706 138.984 158.802C129.684 159.926 118.467 159.082 106.888 156.051C95.4351 153.054 85.3397 148.366 77.8095 142.91C70.73 137.78 65.4882 131.648 64.0667 125.253L28.285 114.789C22.6362 113.137 19.2128 107.413 20.4296 101.655L20.8887 99.4823C21.6325 95.9628 25.166 93.7783 28.6468 94.6861L58.8119 102.553Z" fill="url(#paint2_linear)"/>
<circle cx="76" cy="29" r="29" fill="#F0B90B"/>
<path d="M65.1846 28.9998L60.7476 33.4676L56.2798 28.9998L60.7476 24.532L65.1846 28.9998ZM75.9998 18.1846L83.6413 25.8261L88.1091 21.3583L80.4676 13.7476L75.9998 9.27979L71.532 13.7476L63.9213 21.3583L68.3891 25.8261L75.9998 18.1846ZM91.252 24.532L86.815 28.9998L91.2828 33.4676L95.7198 28.9998L91.252 24.532ZM75.9998 39.815L68.3583 32.1735L63.9213 36.6413L71.5628 44.2828L75.9998 48.7198L80.4676 44.252L88.1091 36.6105L83.6413 32.1735L75.9998 39.815ZM75.9998 33.4676L80.4676 28.9998L75.9998 24.532L71.532 28.9998L75.9998 33.4676Z" fill="#FFFDFA"/>
<g style="mix-blend-mode:multiply" opacity="0.1">
<circle cx="76" cy="29" r="27.5" stroke="#191326" stroke-width="3"/>
</g>
<path d="M125.5 115.999C149.524 115.999 168.999 96.5237 168.999 72.4995C168.999 48.4754 149.524 29 125.5 29C101.475 29 82 48.4754 82 72.4995C82 96.5237 101.475 115.999 125.5 115.999Z" fill="url(#paint3_linear)"/>
<path d="M138.958 59.8137C139.32 54.4215 136.602 49.5278 131.798 46.8996C129.85 45.8574 128.717 45.5856 125.953 45.4496C123.823 45.359 121.966 45.5403 120.923 45.9481C114.761 48.3043 110.955 54.2856 111.589 60.4481C112.042 64.9793 114.398 68.2418 120.244 72.4106L122.012 73.6793C121.984 72.0257 121.967 70.3732 121.967 68.7192C121.967 68.7192 121.266 67.901 120.062 66.9731C116.619 64.3449 115.214 60.8559 116.03 57.0949C117.706 49.6184 126.678 46.9449 132.07 52.2918C134.562 54.8293 135.695 59.0434 134.608 61.8074C134.245 62.8043 133.928 62.4871 133.475 60.6293C133.339 59.9496 133.022 58.9074 132.75 58.2731C132.342 57.2309 132.206 57.1856 130.847 57.6387C130.031 57.9106 129.17 58.2731 128.989 58.4543C128.717 58.7262 131.572 70.0543 132.07 70.5981C132.161 70.6887 134.834 69.8278 138.052 68.7403L143.852 66.7012L143.761 65.2965C143.67 62.8043 142.991 62.4418 140.362 63.484C138.233 64.2996 138.097 64.2996 138.414 63.5746C138.641 63.1215 138.867 61.4449 138.958 59.8137Z" fill="white"/>
<path d="M127.766 91.5775V73.6791V55.7354H125.727H123.688L123.778 73.4978L123.914 91.3057L125.862 91.4416L127.766 91.5775Z" fill="white"/>
<path d="M137.462 81.5635C136.601 80.0229 134.97 78.165 133.158 76.715C131.572 75.401 129.714 74.3135 129.714 74.3135L129.578 78.9143C129.578 78.9143 129.602 78.9143 131.526 80.8385C135.74 84.9166 136.148 90.0822 132.614 94.115C129.125 98.1025 122.554 98.5557 118.794 95.0213C116.075 92.5291 115.033 87.8166 116.528 85.0072L117.208 83.6932L117.479 86.5479C117.661 88.1338 117.887 89.4932 117.978 89.6291C118.114 89.7197 119.02 89.6744 120.017 89.4932C121.558 89.2213 121.875 88.9947 121.875 88.1791C121.875 86.9557 120.561 77.4854 120.334 76.7604C120.198 76.3979 118.25 76.6244 113.854 77.5307C110.411 78.2557 107.556 78.8447 107.465 78.8447C107.375 78.8447 107.42 79.2072 107.511 79.615C107.647 80.0682 107.873 81.0197 108.009 81.6994C108.326 83.0588 108.281 83.0588 112.223 82.1525L113.22 81.926L112.269 84.3729C110.048 90.2635 113.492 97.7854 119.745 100.64C122.147 101.682 127.222 101.773 130.167 100.776C132.886 99.8697 135.831 97.1963 137.508 94.2057C138.731 92.0307 138.867 91.351 138.867 87.9072C138.867 84.4182 138.731 83.8291 137.462 81.5635Z" fill="white"/>
<g style="mix-blend-mode:multiply" opacity="0.2">
<circle cx="125.5" cy="72.5" r="42.0815" stroke="#191326" stroke-width="2.83696"/>
</g>
<defs>
<linearGradient id="paint0_linear" x1="124.757" y1="87.7742" x2="111.381" y2="138.886" gradientUnits="userSpaceOnUse">
<stop stop-color="#404042"/>
<stop offset="1" stop-color="#48484B"/>
</linearGradient>
<linearGradient id="paint1_linear" x1="65.5673" y1="105.096" x2="60.7353" y2="123.129" gradientUnits="userSpaceOnUse">
<stop stop-color="#404042"/>
<stop offset="1" stop-color="#48484B"/>
</linearGradient>
<linearGradient id="paint2_linear" x1="92.4948" y1="80.1687" x2="108.09" y2="164.62" gradientUnits="userSpaceOnUse">
<stop stop-color="#404042"/>
<stop offset="1" stop-color="#48484B"/>
</linearGradient>
<linearGradient id="paint3_linear" x1="82" y1="28.6177" x2="169" y2="115.618" gradientUnits="userSpaceOnUse">
<stop stop-color="#0075FC"/>
<stop offset="1" stop-color="#085FB7"/>
</linearGradient>
</defs>
</svg>

<svg xmlns="http://www.w3.org/2000/svg" xmlns:v="https://vecta.io/nano" width="186" height="171" fill="none"><g fill="#606063"><path d="M67.045 119.028c-3.178 12.144 15 27.421 40.602 34.121s48.934 2.287 52.112-9.858-15-27.421-40.602-34.122-48.934-2.286-52.112 9.859z"/><path d="M155.924 149.273l15.422-16.285-109.354-28.619 5.721 21.818 88.211 23.086z"/><path d="M68.934 108.293L27.073 97.338c-1.815-.475-3.66.654-4.063 2.486l-.468 2.129a8.26 8.26 0 0 0 5.746 9.7l41.812 12.239-1.166-15.599z"/></g><path fill="url(#A)" d="M62.203 98.71c-3.694 14.114 18.324 32.101 49.178 40.176s58.86 3.178 62.554-10.936-18.324-32.101-49.178-40.176-58.861-3.179-62.554 10.935z"/><g fill-rule="evenodd"><path fill="#606063" d="M146.673 123.286c7.098 5.22 11.246 10.866 11.865 15.871l2.978-.368c-.772-6.238-5.737-12.531-13.066-17.92-7.389-5.435-17.439-10.148-28.913-13.151s-22.544-3.817-31.649-2.699c-9.029 1.109-16.44 4.163-20.168 9.223l2.415 1.779c2.992-4.06 9.373-6.95 18.119-8.024 8.67-1.064 19.354-.299 30.523 2.624s20.859 7.49 27.896 12.665z"/><path fill="#979797" d="M75.734 118.739c-8.721-7.124-11.998-14.041-10.629-19.27s7.614-9.654 18.706-11.593c10.807-1.889 25.078-1.154 40.186 2.8s27.911 10.304 36.406 17.245c8.721 7.124 11.998 14.041 10.63 19.27s-7.614 9.653-18.707 11.593c-10.806 1.889-25.078 1.153-40.186-2.8s-27.91-10.304-36.406-17.245zm35.647 20.147c-30.854-8.075-52.872-26.062-49.178-40.176s31.7-19.01 62.554-10.935 52.872 26.062 49.178 40.176-31.7 19.01-62.554 10.936z"/><path fill="url(#B)" d="M64.167 124.049l-4.937-19.123 2.905-.75 4.937 19.123-2.905.75z"/><path fill="url(#C)" d="M62.469 106.189l-.128-.443-.202-.817-.142-.54c.022-.012.03-.019.028-.027l-.004-.025-.12-.794-.022-.191c-.072-.663-.096-1.321-.071-1.974.035-.903.166-1.793.395-2.668 3.694-14.114 31.7-19.01 62.555-10.936s52.872 26.062 49.178 40.176a12.4 12.4 0 0 1-.963 2.519 13.7 13.7 0 0 1-1.635 2.476l-.016.019c.011.02.014.025.015.029l-.611.651-12.932 13.655c-6.807 9.031-27.596 11.752-50.146 5.85-22.302-5.837-38.971-18.182-40.797-29.295-.093-.569-.484-1.054-1.037-1.215L29.127 111.91a8.26 8.26 0 0 1-5.762-9.635l.459-2.172c.39-1.845 2.242-2.99 4.066-2.514l34.249 8.931a.27.27 0 0 0 .331-.331zm-3.657-3.636c-.064-1.544.091-3.085.488-4.603 2.325-8.885 11.93-13.965 23.478-15.984 11.834-2.069 26.992-1.215 42.738 2.906s29.38 10.802 38.683 18.402c9.078 7.417 14.963 16.551 12.638 25.436-.557 2.129-1.552 4.064-2.901 5.789a3.08 3.08 0 0 1-.425.566l-13.429 14.181c-4.171 5.406-12.026 8.46-21.098 9.556-9.3 1.124-20.517.28-32.096-2.751-11.453-2.997-21.548-7.685-29.079-13.141-7.079-5.13-12.321-11.262-13.743-17.657l-35.782-10.464a11.26 11.26 0 0 1-7.855-13.134l.459-2.173c.744-3.519 4.277-5.704 7.758-4.796l30.165 7.867z"/></g><circle cx="76" cy="29" r="29" fill="#f0b90b"/><path fill="#fffdfa" d="M65.185 29l-4.437 4.468L56.28 29l4.468-4.468L65.185 29zM76 18.185l7.642 7.642 4.468-4.468-7.641-7.611L76 9.28 63.921 21.358l4.468 4.468L76 18.185zm15.252 6.347L86.815 29l4.468 4.468L95.72 29l-4.468-4.468zM76 39.815l-7.641-7.642-4.437 4.468L76 48.72l12.109-12.109-4.468-4.437L76 39.815zm0-6.347L80.468 29 76 24.532 71.532 29 76 33.468z"/><circle cx="76" cy="29" r="27.5" stroke="#191326" stroke-width="3" opacity=".1" style="mix-blend-mode:multiply"/><path fill="url(#D)" d="M125.5 115.999c24.024 0 43.499-19.475 43.499-43.499S149.524 29 125.5 29 82 48.475 82 72.5s19.475 43.5 43.5 43.5z"/><path fill="#fff" d="M138.958 59.814c.362-5.392-2.356-10.286-7.16-12.914-1.948-1.042-3.081-1.314-5.845-1.45-2.13-.091-3.987.091-5.03.498-6.162 2.356-9.968 8.338-9.334 14.5.453 4.531 2.809 7.794 8.655 11.963l1.768 1.269-.045-4.96s-.701-.818-1.905-1.746c-3.443-2.628-4.848-6.117-4.032-9.878 1.676-7.477 10.648-10.15 16.04-4.803 2.492 2.538 3.625 6.752 2.538 9.516-.363.997-.68.68-1.133-1.178a14.16 14.16 0 0 0-.725-2.356c-.408-1.042-.544-1.087-1.903-.634-.816.272-1.677.634-1.858.816-.272.272 2.583 11.6 3.081 12.144.091.091 2.764-.77 5.982-1.858l5.8-2.039-.091-1.405c-.091-2.492-.77-2.855-3.399-1.812-2.129.816-2.265.816-1.948.091.227-.453.453-2.13.544-3.761zm-11.192 31.764V55.735h-4.078l.09 17.762.136 17.808 3.852.272zm9.696-10.014c-.861-1.541-2.492-3.398-4.304-4.849-1.586-1.314-3.444-2.401-3.444-2.401l-.136 4.601s.024 0 1.948 1.924c4.214 4.078 4.622 9.244 1.088 13.276-3.489 3.988-10.06 4.441-13.82.906-2.719-2.492-3.761-7.205-2.266-10.014l.68-1.314.271 2.855c.182 1.586.408 2.945.499 3.081.136.091 1.042.045 2.039-.136 1.541-.272 1.858-.499 1.858-1.314 0-1.223-1.314-10.694-1.541-11.419-.136-.362-2.084-.136-6.48.77l-6.389 1.314c-.09 0-.045.362.046.77.136.453.362 1.405.498 2.084.317 1.359.272 1.359 4.214.453l.997-.227-.951 2.447c-2.221 5.891 1.223 13.412 7.476 16.267 2.402 1.042 7.477 1.133 10.422.136 2.719-.906 5.664-3.58 7.341-6.57 1.223-2.175 1.359-2.855 1.359-6.298 0-3.489-.136-4.078-1.405-6.344z"/><circle cx="125.5" cy="72.5" r="42.082" stroke="#191326" stroke-width="2.837" opacity=".2" style="mix-blend-mode:multiply"/><defs><linearGradient id="A" x1="124.757" x2="111.381" y1="87.774" y2="138.886" gradientUnits="userSpaceOnUse"><stop stop-color="#404042"/><stop offset="1" stop-color="#48484b"/></linearGradient><linearGradient id="B" x1="65.567" x2="60.735" y1="105.096" y2="123.129" gradientUnits="userSpaceOnUse"><stop stop-color="#404042"/><stop offset="1" stop-color="#48484b"/></linearGradient><linearGradient id="C" x1="92.495" x2="108.09" y1="80.169" y2="164.62" gradientUnits="userSpaceOnUse"><stop stop-color="#404042"/><stop offset="1" stop-color="#48484b"/></linearGradient><linearGradient id="D" x1="82" x2="169" y1="28.618" y2="115.618" gradientUnits="userSpaceOnUse"><stop stop-color="#0075fc"/><stop offset="1" stop-color="#085fb7"/></linearGradient></defs></svg>
